X: 081040
T: Humors of Listowel
S: "ITM Session Tunes vol 3" ("Sully")
Z: B.Black
M: 2/4
L: 1/8
R: polka
K: D
A/B/A/G/ FA|de f2|ge f/e/d|B/c/d A2|
A/B/A/G/ FA|de f2|ge fe|d2 cd :|
e>f ed|ce a2|e2 e>f|ge c/B/A|
e>f ed|ce a>f|ge fe|d2 cd :|
